assets/icons/librescoot-cb-battery-level-25.svg

<svg width="144" height="144" viewBox="0 0 144 144" fill="none" xmlns="http://www.w3.org/2000/svg">
<g clip-path="url(#clip0_503_445)">
<mask id="mask0_503_445" style="mask-type:alpha" maskUnits="userSpaceOnUse" x="0" y="0" width="144" height="144">
<rect width="144" height="144" fill="#D9D9D9"/>
</mask>
<g mask="url(#mask0_503_445)">
<path d="M39 56H47C48.6569 56 50 57.3431 50 59V64H94V59C94 57.3431 95.3431 56 97 56H105C106.657 56 108 57.3431 108 59V64H116C119.314 64 122 66.6863 122 70V121C122 124.314 119.314 127 116 127H28C24.6863 127 22 124.314 22 121V70C22 66.6863 24.6863 64 28 64H36V59C36 57.3431 37.3431 56 39 56Z" stroke="white" stroke-width="8"/>
<mask id="mask1_503_445" style="mask-type:alpha" maskUnits="userSpaceOnUse" x="48" y="7" width="48" height="48">
<rect x="48" y="7" width="48" height="48" fill="#D9D9D9"/>
</mask>
<g mask="url(#mask1_503_445)">
<path d="M72 48.65C70.8 48.65 69.75 48.2 68.85 47.3C67.95 46.4 67.5 45.35 67.5 44.15C67.5 42.95 67.95 41.9 68.85 41C69.75 40.1 70.8 39.65 72 39.65C73.2 39.65 74.25 40.1 75.15 41C76.05 41.9 76.5 42.95 76.5 44.15C76.5 45.35 76.05 46.4 75.15 47.3C74.25 48.2 73.2 48.65 72 48.65ZM59.6 37.15L56.45 34C58.7833 31.6667 61.225 29.9167 63.775 28.75C66.325 27.5833 69.0667 27 72 27C74.9333 27 77.675 27.5833 80.225 28.75C82.775 29.9167 85.2167 31.6667 87.55 34L84.4 37.15C82.3667 35.1167 80.3167 33.6667 78.25 32.8C76.1833 31.9333 74.1 31.5 72 31.5C69.9 31.5 67.8167 31.9333 65.75 32.8C63.6833 33.6667 61.6333 35.1167 59.6 37.15ZM51.15 28.7L48 25.55C51.1 22.3833 54.7083 19.8333 58.825 17.9C62.9417 15.9667 67.3333 15 72 15C76.6667 15 81.0583 15.9667 85.175 17.9C89.2917 19.8333 92.9 22.3833 96 25.55L92.85 28.7C89.9167 25.9 86.7083 23.6667 83.225 22C79.7417 20.3333 76 19.5 72 19.5C68 19.5 64.2583 20.3333 60.775 22C57.2917 23.6667 54.0833 25.9 51.15 28.7Z" fill="white"/>
</g>
</g>
<path d="M30 72H51V119H30V72Z" fill="white"/>
</g>
<defs>
<clipPath id="clip0_503_445">
<rect width="144" height="144" fill="white"/>
</clipPath>
</defs>
</svg>

<svg xmlns="http://www.w3.org/2000/svg" width="144" height="144" fill="none" viewBox="0 0 144 144"><g clip-path="url(#a)"><mask id="b" width="144" height="144" x="0" y="0" maskUnits="userSpaceOnUse" style="mask-type:alpha"><path fill="#d9d9d9" d="M0 0h144v144H0z"/></mask><g mask="url(#b)"><path stroke="#fff" stroke-width="8" d="M39 56h8c1.6569 0 3 1.3431 3 3v5h44v-5c0-1.6569 1.3431-3 3-3h8c1.657 0 3 1.3431 3 3v5h8c3.314 0 6 2.6863 6 6v51c0 3.314-2.686 6-6 6H28c-3.3137 0-6-2.686-6-6V70c0-3.3137 2.6863-6 6-6h8v-5c0-1.6569 1.3431-3 3-3Z"/><mask id="c" width="48" height="48" x="48" y="7" maskUnits="userSpaceOnUse" style="mask-type:alpha"><path fill="#d9d9d9" d="M48 7h48v48H48z"/></mask><g mask="url(#c)"><path fill="#fff" d="M72 48.65q-1.8 0-3.15-1.35t-1.35-3.15T68.85 41 72 39.65 75.15 41t1.35 3.15-1.35 3.15T72 48.65m-12.4-11.5L56.45 34q3.5-3.5 7.325-5.25T72 27t8.225 1.75T87.55 34l-3.15 3.15q-3.05-3.05-6.15-4.35T72 31.5t-6.25 1.3-6.15 4.35m-8.45-8.45L48 25.55q4.65-4.75 10.825-7.65T72 15t13.175 2.9T96 25.55l-3.15 3.15q-4.4-4.2-9.625-6.7T72 19.5 60.775 22t-9.625 6.7"/></g></g><path fill="#fff" d="M30 72h21v47H30z"/></g><defs><clipPath id="a"><path fill="#fff" d="M0 0h144v144H0z"/></clipPath></defs></svg>
